!!!COM: Palestrina, Giovanni Perluigi da
!!!OPR: Missa Ad fugam
!!!OMD: Sanctus
!!!OTL: Hosanna
**kern	**kern	**kern	**kern
*Ibass	*Itenor	*Icalto	*Icant
!Bassus	!Tenor	!Altus	!Cantus
*clefF4	*clefGv2	*clefG2	*clefG2
*k[]	*k[]	*k[]	*k[]
*G:mix	*G:mix	*G:mix	*G:mix
*M3/2	*M3/2	*M3/2	*M3/2
=41	=41	=41	=41
1r	1r	1g	1r
2r	2r	[2a	[2cc
=42	=42	=42	=42
1r	1r	2a]	2cc]
.	.	2f	1dd
2r	2r	2g	.
=43	=43	=43	=43
1r	1r	2g	2b
.	.	1a	2cc
2r	2r	.	2cc
=44	=44	=44	=44
1G	1r	2.g	1dd
.	.	4f	.
[2A	[2c	2e	[2cc
=45	=45	=45	=45
2A]	2c]	1a	4cc]
.	.	.	4b
2F	1d	.	2a
2G	.	[2g	[2dd
=46	=46	=46	=46
2G	2B	4g]	2dd]
.	.	4f	.
1A	2c	4e	2.cc
.	.	4d	.
.	2c	[2e	.
.	.	.	4b
=47	=47	=47	=47
1D	1d	4e]	4a
.	.	4d	4g
.	.	1d	2.a
[2E	[2G	.	.
.	.	.	4g
=48	=48	=48	=48
2E]	2G]	2c#	1g
1D	1A	2d	.
.	.	2a	2f#
=49	=49	=49	=49
2r	1G	1b	2g
1G	.	.	2dd
.	2r	2b	[2ee
=50	=50	=50	=50
1A	1c	2cc	2ee]
.	.	1a	2ee
2F	[2d	.	2ff
=51	=51	=51	=51
1G	2d]	2.b	1dd
.	2B	.	.
.	.	4a	.
2r	[2c	4g	[2ee
.	.	4f	.
=52	=52	=52	=52
1c	2c]	1e	4ee]
.	.	.	4dd
.	2r	.	4cc
.	.	.	4b
[2d	[2f	2f	[2a
=53	=53	=53	=53
2d]	2f]	1d	2a]
2B	1g	.	2b
2c	.	2r	[2g
=54	=54	=54	=54
2c	2e	2r	2g]
1d	2f	1a	1r
.	2f	.	.
=55	=55	=55	=55
1G	1g	1b	1dd
2r	[2c	2g	[2ee
=56	=56	=56	=56
1r	2c]	2g	2ee]
.	1r	1a	2cc
2r	.	.	2cc
=57	=57	=57	=57
1r	1r	1b	1dd
[2c	2r	[2cc	[2ee
=58	=58	=58	=58
2c]	2r	4cc]	2ee]
.	.	4b	.
1d	1f	2a	2.ff
.	.	2d	.
.	.	.	4ee
=59	=59	=59	=59
2B	1g	2r	2dd
2.c	.	2e	2g
.	2e	[2cc	2r
4B	.	.	.
=60	=60	=60	=60
4A	2.f	4cc]	2a
4G	.	4b	.
1F	.	4a	2.ff
.	4e	4g	.
.	4d	[2a	.
.	4c	.	4ee
=61	=61	=61	=61
2G	1B	4a]	4dd
.	.	4g	4cc
2G	.	1g	2.dd
[2A	2c	.	.
.	.	.	4cc
=62	=62	=62	=62
2A]	2c	2f#	1cc
1G	1d	1g	.
.	.	.	2b
=63	=63	=63	=63
1C	1c	1g	1cc
2r	[2F	[2a	2r
=64	=64	=64	=64
1r	2F]	2a]	2cc
.	1r	2f	1dd
2r	.	2g	.
=65	=65	=65	=65
1r	1r	2g	2b
.	.	1a	2cc
2r	2r	.	2cc
=66	=66	=66	=66
1G	1r	1g	1dd
[2A	[2c	2e	[2cc
=67	=67	=67	=67
2A]	2c]	1a	2cc]
2F	1d	.	2a
2G	.	[2g	[2dd
=68	=68	=68	=68
2G	2B	4g]	2dd]
.	.	4f	.
1A	2c	4e	2.cc
.	.	4d	.
.	2c	[2e	.
.	.	.	4b
=69	=69	=69	=69
1D	1d	4e]	4a
.	.	4d	4g
.	.	1d	2.a
[2E	[2G	.	.
.	.	.	4g
=70	=70	=70	=70
2E]	2G]	2c#	1g
1D	1A	1d	.
.	.	.	2f#
=71	=71	=71	=71
[1.G	[1.G	[1.d	1g
.	.	.	[2g
=72	=72	=72	=72
1.G]	1.G]	1.d]	1.g]
==	==	==	==
*-	*-	*-	*-
!!!CDT: 1525/^1526/-1594/2/2
!!!OCY: Italia
!!!AGN: Mass (Canonic)
!!!AST: renaissance, vocal
!!!ASW: Motet (Maffoni)
!!!PWK: Masses, Book 2
!!!RNB: Cadence finals: C
!!!YOR: Le Opere Complete, v. 4, p. 74
!!!YOO: Rome, Italy: Fratelli Scalera
!!!END: 1992//
!!!EED: John Miller
!!!YEC: Copyright 2000, John Miller
!!!YEN: United States of America
!!!YEM: Rights to all derivative electronic formats reserved.
!!!YEM: Refer to licensing agreement for further details.
!!!YEM: This file must be accompanied by the licensing agreement.
!!!YEM: A copy of the licensing agreement may be found at http://www.music-cog.ohio-state.edu/HumdrumDatabases/Palestrina/license.txt
!!!EMD: converted to Humdrum by Bret Aarden
